!!!OTL: Die Geburt im Walde Redselille slog Guldvaeven saa hart,
!!!ARE: Nordeuropa, Daenemark
!!!YOR: 1, S. 70
!!    1860 aufgezeichnet (vor); gedruckt in Kjoebenhavn 1863
!!!SCT: Q2007D
!!!YEM: Copyright 1995, estate of Helmut Schaffrath.
**kern
*ICvox
*Ivox
*M3/4
*k[b-e-]
*g:
{8.g
16g
=1
4g
4b-
4g
=2
2dd
4dd
=3
4cc
4a
4b-
=4
4g
4f#}
{8.g
16g
=5
4g
4b-
4g
=6
2dd
4dd
=7
4cc
4a
4b-
=8
4g
4f#}
{8.b-
16cc
=9
4.dd
8cc
4b-
=10
4.a
8b-
4cc
=11
4.cc
8dd
4cc
=12
2cc
4r
=13
2b-
4g
=14
2f#}
{4g
=15
4.b-
8cc
4dd
=16
4.dd
8cc
4a
=17
4.b-
8a
4b-
=18
2g}
==
!!!AGN: Ballade, Geburt, Tod, Moral
!! Anhaengsel in der dritten Zeile. Daenische Fassung der Ballade.
!!!ONB: ESAC (Essen Associative Code) Database: BALLADE
!!!AMT: simple triple
!!!AIN: vox
!!!EED: Helmut Schaffrath
!!!EEV: 1.0
*-
!!!title: @{OTL} [@{SCT}]
